X:1
T:Isaac Watts, 1719 (Psalm 103)   66. 86. (S. M.)
T:G Major Oliver Holden, 1796
T:Havre No copyright. Transcribed from The Union Harmony, 1796.
%%score [ 1 2 3 4 ]
L:1/8
M:3/4
K:G
V:1 treble nm="Treble" snm="Tr."
V:2 treble nm="Counter" snm="C."
V:3 treble-8 nm="Tenor" snm="T."
V:4 bass nm="Bass" snm="B."
V:1
 G2 B2 d2 | (B2 A2) A2 | G4 F2 | (G2 B2) c2 | A4 G2 | F4 F2 | GG A2 G2 | Ac B2 c2 | BA G2 G2 | %9
w: 1.~O bless the|Lord, * my|soul, Let|all * with-|in me|join And|aid my tongue to|bless His name, Whose|fa- vors are di-|
w: 2.~O bless the|Lord, * my|soul, Nor|let * His|mer- cies|lie For-|got- ten in un-|thank- ful- ness, And|with- out prai- ses|
 A4 A2 | GB Ac BA | B4 F2 | GBc/B/c/d/ eg | d4 c2 | B6 |] %15
w: vine. And|aid my tongue to bless His|name, whose|fa- * * * * * * vors|are di-|vine.|
w: die, For-|got- ten in un- thank- ful-|ness, And|with- * * * * * * out|prai- ses|die.|
V:2
 D2 D2 G2 | (G2 F2) D2 | D4 D2 | G4 G2 | F4 E2 | D4 D2 | EG D2 D2 | DD D2 G2 | GF D2 E2 | F4 F2 | %10
w: 3.~'Tis He for-|gives * thy|sins, 'Tis|He re-|lieves thy|pain; 'Tis|He that heals thy|sick- nes- ses, And|makes thee young a-|gain. 'Tis|
w: 4.~He crowns thy|life * with|love, When|ran- somed|from the|grave, He|that re- deemed my|soul from hell Hath|sove- reign power to|save. He|
 GG DD DD | D4 D2 | G4 E2 | D4 D2 | D6 |] %15
w: He that heals thy sick- nes-|ses, And|makes~ thee|young a-|gain.|
w: that re- deemed my soul from|hell Hath|sove- reign|power to|save.|
V:3
 c2 G2 B2 | d4 c2 | B4 A2 | (c2 d2) e2 | c4 B2 | A4 A2 | cB A2 B2 | cA G2 e2 | dc B2 ^c2 | d4 d>c | %10
w: 5.~He fills the|poor with|good; He|gives * the|suffer- ers|rest; The|Lord hath judg- ments|for the proud, And|jus- tice for th'~op-|pressed. The *|
w: 6.~His won- drous|works and|ways He|made * by|Mo- ses|known, But|sent the world His|truth and grace By|His be- lov- ed|Son. But *|
 Bd cA GF | G4 AB/c/ | Bde/d/e/f/ gc | B4 A2 | G6 |] %15
w: Lord hath judg- ments for the|proud, And * *|jus- * * * * * * tice|for th'~op-|pressed.|
w: sent the world His truth and|grace By * *|His~ _ _ _ _ _ _ be-|lo- ved|Son.|
V:4
 G,2 G,2 G,2 | D,4 D,2 | G,4 D,2 | G,4 G,2 | F,4 G,2 | D,4 D,2 | C,G,, D,2 G,2 | F,D, G,2 G,2 | %8
 D,D, G,2 A,2 | D,4 D,2 | G,G, D,D, B,,D, | G,,4 D,2 | G,4 C,2 | D,4 D,2 | G,,6 |] %15

